!!!COM:	Josquin des Prez
!!!CDT:	~1450-1521/08/27
!!!OPR:	Missa Hercules dux Ferrarie
!!!OTA:	Missa Philippus rex Castilie
!!!ONM:	1
!!!OTL:	Credo
!!!AGN:	Mass; Credo
!!!SCT:	NJE 11.1
!!!SCA:	New Josquin Edition 11.1
!!!voices: 4
!!!voices-OPR: 4(-6)
**kern	**kern	**kern	**kern
*staff4	*staff3	*staff2	*staff1
*Ivox	*Ivox	*Ivox	*Ivox
*I"Bassus	*I"Tenor	*I"Altus	*I"Superius
*I'B	*I'T	*I'A	*I'S
*>[A,B,C]	*>[A,B,C]	*>[A,B,C]	*>[A,B,C]
*>Patrem[A]	*>Patrem[A]	*>Patrem[A]	*>Patrem[A]
*>Incarnatus[B]	*>Incarnatus[B]	*>Incarnatus[B]	*>Incarnatus[B]
*>Spiritum[C]	*>Spiritum[C]	*>Spiritum[C]	*>Spiritum[C]
*clefF4	*clefGv2	*clefGv2	*clefG2
*>A	*>A	*>A	*>A
*k[]	*k[]	*k[]	*k[]
*M3/1	*M3/1	*M3/1	*M3/1
*met(O)	*met(O)	*met(O)	*met(O)
=1-	=1-	=1-	=1-
!!section: Patrem
!!!OMD: Patrem
0.r	0.r	1A	0.r
.	.	1B-	.
.	.	2A/	.
.	.	2F/	.
=2	=2	=2	=2
0.r	0.r	2G/	1e
.	.	2.A/	.
.	.	.	1f
.	.	4D/	.
.	.	2d\	.
.	.	4c\	2e/
.	.	4B\	.
.	.	4A/	2c/
.	.	4G/	.
=3	=3	=3	=3
0.r	0.r	2F/	2d/
.	.	2G/	2.e/
.	.	2.A/	.
.	.	.	4A/
.	.	.	2a/
.	.	4B\	.
.	.	4c\	4g/
.	.	4d\	4f/
.	.	[2e\	4e/
.	.	.	4d/
=4	=4	=4	=4
0.r	0.r	4e\]	2c/
.	.	4d\	.
.	.	1d	2d/
.	.	.	1e
.	.	2c#i\	.
.	.	1d	2d/
.	.	.	2f/
=5	=5	=5	=5
0.r	0.r	2B\	2g/
.	.	2c\	2.a/
.	.	1d	.
.	.	.	4g/
.	.	.	4f/
.	.	.	4e/
.	.	1d	4d/
.	.	.	4c/
.	.	.	2B/
=6	=6	=6	=6
0.r	0.r	2c\	2A/
.	.	2d\	2.a/
.	.	1A	.
.	.	.	4g/
.	.	.	4f/
.	.	.	4e/
.	.	1d	4d/
.	.	.	4c/
.	.	.	2B/
=7	=7	=7	=7
1r	0.r	2c\	2A/
.	.	2d\	2.a/
1r	.	1A	.
.	.	.	4g/
.	.	.	4f/
.	.	.	4e/
2F\	.	1d	4d/
.	.	.	4c/
2G\	.	.	2B/
=8	=8	=8	=8
2.A\	0.r	1c	2A/
.	.	.	2.a/
4G\	.	.	.
4F\	.	1r	.
4E\	.	.	4g/
4D\	.	.	4f/
4C/	.	.	4e/
2BB/	.	1r	2d/
2AA/	.	.	2c/
=9	=9	=9	=9
2.A\	0.D	2r	2r
.	.	1A	2.a/
4G\	.	.	.
4F\	.	.	.
4E\	.	.	4g/
2.D\	.	2A/	2.f/
.	.	2A/	.
4C/	.	.	4e/
2BB/	.	2B\	2d/
=10	=10	=10	=10
0AA	0.C	2.c\	0e
.	.	4B\	.
.	.	2c\	.
.	.	2A/	.
1r	.	1G	1e
=11	=11	=11	=11
2r	0.D	1F	1A
1A	.	.	.
.	.	1.f	2.a/
2A\	.	.	.
.	.	.	4a/
2A\	.	.	2a/
2B\	.	4e\	2f/
.	.	4d\	.
=12	=12	=12	=12
2.c\	0.C	2.e\	2a/
.	.	.	2.g/
4B\	.	4d\	.
2c\	.	2e\	.
.	.	.	4f/
2A\	.	2.c\	1f
1G	.	.	.
.	.	4B\	.
.	.	2c\	2e/
=13	=13	=13	=13
2F\	0.D	1A	1f
2.A\	.	.	.
.	.	2r	2.a/
4G\	.	.	.
4F\	.	2D/	.
4E\	.	.	4g/
4D\	.	2F/	4f/
4C/	.	.	4e/
2BB/	.	2G/	2d/
=14	=14	=14	=14
2AA/	0.F	2.A/	2c/
2.A\	.	.	2.cc\
.	.	4B\	.
.	.	1c	.
4G\	.	.	4b\
4F\	.	.	4a/
4E\	.	.	4g/
4D\	.	1d	4f/
4C/	.	.	4e/
4BB/	.	.	4d/
4AA/	.	.	4c/
=15	=15	=15	=15
4C/	0.E	1G	2.g/
4D\	.	.	.
2E\	.	.	.
.	.	.	4f/
2AA/	.	2A/	4e/
.	.	.	4d/
2BB/	.	2G/	1d
1AA	.	1A	.
.	.	.	2c#i/
=16	=16	=16	=16
2.A\	0.D	2r	0.d
.	.	1A	.
4G\	.	.	.
4F\	.	.	.
4E\	.	.	.
2.D\	.	2A/	.
.	.	2A/	.
4C/	.	.	.
2BB/	.	2B\	.
=17	=17	=17	=17
2AA/	0.r	2.c\	0.r
1A	.	.	.
.	.	4c\	.
.	.	2c\	.
2A\	.	2.F/	.
2A\	.	.	.
.	.	4E/	.
2B\	.	2D/	.
=18	=18	=18	=18
2.c\	0.r	2C/	0.r
.	.	2F/	.
4c\	.	.	.
2c\	.	2E/	.
2.F\	.	1A	.
4E\	.	.	.
2D\	.	2F/	.
=19	=19	=19	=19
2C/	0.r	2.c\	0.r
2F\	.	.	.
.	.	4B\	.
2E\	.	2G/	.
1A	.	2F/	.
.	.	2.c\	.
2F\	.	.	.
.	.	4B\	.
=20	=20	=20	=20
2.c\	0.r	4A/	0.r
.	.	4G/	.
.	.	2F/	.
4B\	.	.	.
4A\	.	2E/	.
4G\	.	.	.
2F\	.	2D/	.
2.c\	.	2C/	.
.	.	[2c\	.
4B\	.	.	.
=21	=21	=21	=21
4A\	0.r	4c\]	0.r
4G\	.	4B\	.
2F\	.	2A/	.
2E\	.	2G/	.
2D\	.	2F/	.
2C/	.	2.c\	.
[2c\	.	.	.
.	.	4B\	.
=22	=22	=22	=22
4c\]	0.r	4A/	0.r
4B\	.	4G/	.
2A\	.	2F/	.
2G\	.	2E/	.
2F\	.	2.c\	.
2.c\	.	.	.
.	.	4B\	.
.	.	4A/	.
4B\	.	4G/	.
=23	=23	=23	=23
4A\	0.r	2F/	0.r
4G\	.	.	.
2F\	.	2.c\	.
2E\	.	.	.
.	.	4B\	.
2.c\	.	2.A/	.
4B\	.	4G/	.
4A\	.	4F/	.
4G\	.	4E/	.
=24	=24	=24	=24
4F\	0.r	4D/	0.r
4E\	.	4C/	.
4D\	.	2.F/	.
4C/	.	.	.
1D	.	.	.
.	.	8E/L	.
.	.	8D/J	.
.	.	1d	.
1E	.	.	.
.	.	2c\	.
=25	=25	=25	=25
1D	0.A	2d\	2r
.	.	2f\	2A/
2r	.	1e	2.c/
2AA/	.	.	.
.	.	.	4d/
2C/	.	1r	2e/
2D\	.	.	2f/
=26	=26	=26	=26
2E\	0.G	0.r	2.g/
2.G\	.	.	.
.	.	.	4f/
.	.	.	4e/
4F\	.	.	4d/
4E\	.	.	1d
4D\	.	.	.
1E	.	.	.
.	.	.	2c/
=27	=27	=27	=27
1D	0.A	2r	2d/
.	.	2A/	2f/
2r	.	2.c\	1e
2AA/	.	.	.
.	.	4d\	.
2C/	.	2e\	1r
2D\	.	2f\	.
=28	=28	=28	=28
2E\	0.G	2.g\	0.r
2.G\	.	.	.
.	.	4f\	.
.	.	4e\	.
4F\	.	4d\	.
4E\	.	1d	.
4D\	.	.	.
1E	.	.	.
.	.	2c\	.
=29	=29	=29	=29
1D	0.A	2d\	2r
.	.	2f\	2d/
2r	.	2e\	2c/
2D\	.	2A/	2f/
2C/	.	2r	2e/
2F\	.	2A/	2A/
=30	=30	=30	=30
2E\	0.c	2G/	2r
2AA/	.	2.A/	2a/
2r	.	.	2a/
.	.	4B\	.
2A\	.	4c\	2a/
.	.	4d\	.
2A\	.	2e\	2.e/
2A\	.	2e\	.
.	.	.	4f/
=31	=31	=31	=31
2.E\	0.B	2e\	2g/
.	.	2e\	2g/
4F\	.	.	.
2G\	.	2.B\	2g/
2G\	.	.	2g/
.	.	4c\	.
2G\	.	2d\	2d/
2G\	.	2d\	2d/
=32	=32	=32	=32
2D\	0.A	2d\	2f/
2D\	.	2d\	2f/
2F\	.	2A/	1f
2F\	.	2A/	.
1F	.	2c\	1c
.	.	2c\	.
=33	=33	=33	=33
0.C	0.r	1c	2r
.	.	.	2.g/
.	.	1G	.
.	.	.	4g/
.	.	.	2g/
.	.	2r	2a/
.	.	[2c\	2g/
=34	=34	=34	=34
0.r	0.r	4c\]	2.e/
.	.	4c\	.
.	.	2c\	.
.	.	.	4g/
.	.	2d\	2f/
.	.	2c\	2e/
.	.	2.A/	2r
.	.	.	2e/
.	.	4c\	.
=35	=35	=35	=35
0.r	0.r	2B\	2d/
.	.	2A/	2.e/
.	.	2r	.
.	.	.	4d/
.	.	2A/	4e/
.	.	.	4f/
.	.	2G/	2.g/
.	.	[2A/	.
.	.	.	4e/
=36	=36	=36	=36
0.r	0.r	4A/]	4f/
.	.	4G/	4g/
.	.	4A/	2e/
.	.	4B\	.
.	.	2.c\	2r
.	.	.	2a/
.	.	4A/	.
.	.	2B\	2g/
.	.	2A/	[2a/
=37	=37	=37	=37
0.r	0.r	2d\	4a/]
.	.	.	4b\
.	.	2c\	4cc\
.	.	.	4a/
.	.	2.d\	2b\
.	.	.	1a
.	.	4e\	.
.	.	4f\	.
.	.	4d\	.
.	.	2e\	2g/
=38	=38	=38	=38
0.r	0.r	2d\	4f/
.	.	.	4d/
.	.	4c\	2e/
.	.	4A/	.
.	.	2B\	2d/
.	.	2A/	2a/
.	.	2e\	4g/
.	.	.	4e/
.	.	4d\	4f/
.	.	4B\	4g/
=39	=39	=39	=39
0.r	0.r	4c\	4e/
.	.	4d\	4d/
.	.	4B\	2g/
.	.	4A/	.
.	.	2d\	4f/
.	.	.	4d/
.	.	4c\	2e/
.	.	4A/	.
.	.	2B\	2d/
.	.	2A/	2a/
=40	=40	=40	=40
0.r	0.r	2e\	4g/
.	.	.	4e/
.	.	4d\	4f/
.	.	4B\	4g/
.	.	4c\	4e/
.	.	4d\	4d/
.	.	4B\	2g/
.	.	4.e\	.
.	.	.	4f/
.	.	8d\	.
.	.	2d\	4d/
.	.	.	2e/
.	.	4c#i\	.
=41	=41	=41	=41
2r	0.d	1d	1d
2D\	.	.	.
2D\	.	2D/	1r
2F\	.	2D/	.
2D\	.	2F/	1r
[2F\	.	2D/	.
=42	=42	=42	=42
4F\]	0.c	2.F/	2A/
4G\	.	.	.
2A\	.	.	2A/
.	.	4G/	.
0AA	.	0A	2c/
.	.	.	2A/
.	.	.	4c/
.	.	.	4d/
.	.	.	2e/
=43	=43	=43	=43
2D\	0.d	2r	4f/
.	.	.	4d/
2D\	.	2D/	4f/
.	.	.	4g/
2D\	.	2D/	1a
2F\	.	2D/	.
2D\	.	2F/	2r
[2F\	.	2D/	2A/
=44	=44	=44	=44
4F\]	0.c	2.F/	2A/
4G\	.	.	.
2A\	.	.	2A/
.	.	4G/	.
0AA	.	0A	2c/
.	.	.	2A/
.	.	.	4c/
.	.	.	4d/
.	.	.	2e/
=45	=45	=45	=45
2D\	0.d	2F/	2f/
2G\	.	2B-\	2d/
4F\	.	4A/	2r
4D\	.	4F/	.
2G\	.	2B-i\	2d/
4F\	.	4A/	2f/
4D\	.	4F/	.
2G\	.	2B-i\	2d/
=46	=46	=46	=46
2F\	0.f	2A/	1a
2D\	.	2d\	.
2F\	.	4c\	2r
.	.	4A/	.
2D\	.	2d\	2a/
2.F\	.	4c\	2.a/
.	.	4A/	.
.	.	2d\	.
4G\	.	.	4b\
=47	=47	=47	=47
4A\	0.e	2.c\	4cc\
4B\	.	.	4dd\
2.c\	.	.	1ee
.	.	8B/L	.
.	.	8A/J	.
.	.	2c\	.
4B\	.	.	.
2G\	.	2B\	1dd
1A	.	4c\	.
.	.	4A/	.
.	.	2c\	2cc\
=48	=48	=48	=48
2r	[0.dl	2B-i\	2.dd\
2.B-\	.	1G	.
.	.	.	4cc\
.	.	.	2b-i\
4A\	.	.	.
2F\	.	2A/	2a/
2.G\	.	2B-i\	1g
.	.	2G/	.
4F\	.	.	.
=49	=49	=49	=49
0.Dl	0.d]	1B-	0.fl
.	.	0Al	.
!!LO:LB:i:g=z
=50||	=50||	=50||	=50||
*>B	*>B	*>B	*>B
!!section: Et incarnatus est
!!!OMD: Et incarnatus est
*M2/1	*M2/1	*M2/1	*M2/1
*met(C|)	*met(C|)	*met(C|)	*met(C|)
1AA	0r	0r	0r
2AA/	.	.	.
2AA/	.	.	.
=51	=51	=51	=51
1BB	0r	1r	0r
1C	.	2r	.
.	.	2A/	.
=52	=52	=52	=52
0D	0r	2A/	2r
.	.	2A/	2d/
.	.	1B	2d/
.	.	.	2d/
=53	=53	=53	=53
0r	0r	1c	1e
.	.	2d\	1f
.	.	2A/	.
=54	=54	=54	=54
0r	0r	2B\	2g/
.	.	2c\	2e/
.	.	2d\	2f/
.	.	2B\	2g/
=55	=55	=55	=55
0r	0r	2c\	2e/
.	.	1d	1f
.	.	4c\	4e/
.	.	4B\	4d/
=56	=56	=56	=56
2r	0r	2.c\	0e
2AA/	.	.	.
.	.	4B\	.
2AA/	.	4A/	.
.	.	4G/	.
2AA/	.	2A/	.
=57	=57	=57	=57
1BB	0r	2F/	0r
.	.	1G	.
1C	.	.	.
.	.	4F/	.
.	.	4E/	.
=58	=58	=58	=58
0D	0D	1F	1r
.	.	2r	1f
.	.	2D/	.
=59	=59	=59	=59
0r	0C	2.E/	2e/
.	.	.	2c/
.	.	4F/	.
.	.	2G/	2e/
.	.	2E/	2g/
=60	=60	=60	=60
1r	0D	2.F/	2f/
.	.	.	2d/
.	.	4G/	.
2r	.	1A	2.f/
2D\	.	.	.
.	.	.	4g/
=61	=61	=61	=61
2.E\	0C	0r	1e
4F\	.	.	.
2G\	.	.	2r
2E\	.	.	2g/
=62	=62	=62	=62
2.F\	0D	0r	2f/
.	.	.	2d/
4G\	.	.	.
1A	.	.	[1f
=63	=63	=63	=63
0r	0F	2r	2f/]
.	.	2A/	4e/
.	.	.	4d/
.	.	2A/	2c/
.	.	2A/	2d/
=64	=64	=64	=64
2r	0E	2B\	2.e/
2AA/	.	2.c\	.
.	.	.	4c/
2AA/	.	.	1c
.	.	4B\	.
2AA/	.	4A/	.
.	.	4G/	.
=65	=65	=65	=65
2.BB/	0D	1F	2r
.	.	.	1d
4C/	.	.	.
1D	.	2r	.
.	.	2F/	2d/
=66	=66	=66	=66
0r	0r	2G/	2d/
.	.	2F/	2d/
.	.	2G/	2d/
.	.	2F/	2d/
=67	=67	=67	=67
0r	0r	2G/	2e/
.	.	2A/	2c/
.	.	2F/	1d
.	.	[2G/	.
=68	=68	=68	=68
0r	0r	2G/]	2e/
.	.	2A/	2c/
.	.	2F/	2d/
.	.	2G/	2e/
=69	=69	=69	=69
0r	0r	2A/	2f/
.	.	2B-\	2d/
.	.	2G/	2.e/
.	.	[2A/	.
.	.	.	4c/
=70	=70	=70	=70
0r	0r	4A/]	2c/
.	.	4F/	.
.	.	2F/	1d
.	.	1G	.
.	.	.	2d/
=71	=71	=71	=71
0r	0r	2G/	2e/
.	.	2A/	2c/
.	.	2F/	2d/
.	.	2G/	2e/
=72	=72	=72	=72
2r	0r	2A/	2A/
1D	.	2D/	2.f/
.	.	4d\	.
.	.	4c\	4e/
2D\	.	4B\	4d/
.	.	4A/	4c/
=73	=73	=73	=73
2E\	0r	2G/	2B/
2C/	.	1A	2A/
2D\	.	.	1B
2E\	.	2G#i/	.
=74	=74	=74	=74
1AA	0A	1A	2A/
.	.	.	2e/
1D	.	2r	2f/
.	.	2d\	2f/
=75	=75	=75	=75
2E\	0G	2B\	2.g/
2E\	.	2B\	.
.	.	.	4e/
1C	.	[1c	1e
=76	=76	=76	=76
1AA	0A	2c\]	2r
.	.	4B\	2e/
.	.	4A/	.
1D	.	2A/	2f/
.	.	2d\	2f/
=77	=77	=77	=77
2E\	0G	2B\	2.g/
2E\	.	2B\	.
.	.	.	4e/
1C	.	[1c	1e
=78	=78	=78	=78
1AA	0A	2c\]	2r
.	.	4B\	2e/
.	.	4A/	.
2r	.	2A/	2c/
2D\	.	2F/	2f/
=79	=79	=79	=79
2C/	0c	2G/	2e/
2AA/	.	2A/	2.c/
2.C/	.	2E/	.
.	.	.	4d/
.	.	[2e\	4e/
4D\	.	.	4f/
=80	=80	=80	=80
2E\	0B	2e\]	4g/
.	.	.	4e/
2F\	.	2d\	2.a/
1E	.	[1e	.
.	.	.	4g#i/
.	.	.	4g#i/
.	.	.	4f#i/
=81	=81	=81	=81
0AA	0A	2e\]	1a
.	.	4d\	.
.	.	4c\	.
.	.	1c	2r
.	.	.	2A/
=82	=82	=82	=82
0r	0r	2r	4A/
.	.	.	4B/
.	.	2.A/	4c/
.	.	.	4d/
.	.	.	2e/
.	.	4B\	.
.	.	4c\	2A/
.	.	4d\	.
=83	=83	=83	=83
0r	0r	2e\	4c/
.	.	.	4d/
.	.	2A/	4e/
.	.	.	4f/
.	.	2.e\	2g/
.	.	.	2c/
.	.	4f\	.
=84	=84	=84	=84
0r	0r	2g\	2r
.	.	2c\	2g/
.	.	2r	2a/
.	.	2c\	2cc\
=85	=85	=85	=85
0r	0r	2d\	2b\
.	.	2f\	2a/
.	.	2e\	2g/
.	.	2d\	2f/
=86	=86	=86	=86
2r	0r	2c\	1e
2E\	.	2B\	.
2F\	.	1A	1r
2D\	.	.	.
=87	=87	=87	=87
2E\	0r	0r	2r
2C/	.	.	2e/
2D\	.	.	2f/
2BB/	.	.	2d/
=88	=88	=88	=88
2AA/	0r	2r	1e
2A\	.	2c\	.
2B\	.	2d\	1r
2G\	.	2B\	.
=89	=89	=89	=89
2A\	0r	1c	2r
2F\	.	.	2a/
2G\	.	1r	2b\
2E\	.	.	2g/
=90	=90	=90	=90
2D\	0d	1r	2a/
2G\	.	.	2d/
2F\	.	2r	2a/
2D\	.	[2F/	2a/
=91	=91	=91	=91
1F	0c	4F/]	1a
.	.	4G/	.
.	.	4A/	.
.	.	4F/	.
1E	.	2.G/	1g
.	.	4A/	.
=92	=92	=92	=92
2D\	0d	4B-i\	2f/
.	.	4A/	.
2G\	.	2B-i\	2d/
2F\	.	2A/	1a
2D\	.	[2F/	.
=93	=93	=93	=93
1F	0c	4F/]	1a
.	.	4G/	.
.	.	4A/	.
.	.	4F/	.
1E	.	2.G/	1g
.	.	4A/	.
=94	=94	=94	=94
2D\	0d	4B-i\	2f/
.	.	4A/	.
2G\	.	2B-i\	2d/
2F\	.	2A/	2.f/
[2D\	.	2B-i\	.
.	.	.	4g/
=95	=95	=95	=95
4D\]	0f	2A/	4a/
4E\	.	.	4g/
1F	.	4D/	2.a/
.	.	4E/	.
.	.	4F/	.
.	.	4G/	4b\
4E\	.	4A/	4cc\
4D\	.	4B\	4dd\
=96	=96	=96	=96
2C/	0e	2c\	4ee\
.	.	.	4cc\
2BB/	.	2G/	2.dd\
1AA	.	1A	.
.	.	.	4cc#i\
.	.	.	4cc#i\
.	.	.	4b\
=97	=97	=97	=97
0Dl	0dl	0Fl	0ddl
!!LO:LB:i:g=z
=98||	=98||	=98||	=98||
*>C	*>C	*>C	*>C
!!section: Et in spiritum
!!!OMD: Et in spiritum
*M2/1	*M2/1	*M2/1	*M2/1
*met(C|)	*met(C|)	*met(C|)	*met(C|)
2.D\	0d	0r	0r
4E\	.	.	.
2F\	.	.	.
[2G\	.	.	.
=99	=99	=99	=99
4G\]	0e	0r	0r
4F\	.	.	.
4E\	.	.	.
4D\	.	.	.
4C#i/	.	.	.
4D\	.	.	.
4E\	.	.	.
4C#i/	.	.	.
=100	=100	=100	=100
1D	0f	2r	2.a/
.	.	2d\	.
.	.	.	4b\
1r	.	2A/	2cc\
.	.	[2f\	[2dd\
=101	=101	=101	=101
0r	0d	4f\]	4dd\]
.	.	4e\	4cc\
.	.	4d\	4b\
.	.	4c\	4a/
.	.	1B	4g#i/
.	.	.	4a/
.	.	.	4b\
.	.	.	4g#i/
=102	=102	=102	=102
2r	0c	1A	2a/
1A	.	.	1cc
.	.	1r	.
2A\	.	.	4b-i\
.	.	.	4a/
=103	=103	=103	=103
2G\	0d	0r	2b-i\
2F\	.	.	1a
1B-	.	.	.
.	.	.	2g/
=104	=104	=104	=104
1A	0c	2r	2a/
.	.	1A	1cc
1r	.	.	.
.	.	2A/	4b-i\
.	.	.	4a/
=105	=105	=105	=105
0r	0d	2G/	2b-i\
.	.	2F/	1a
.	.	1B-	.
.	.	.	2g/
=106	=106	=106	=106
2r	0r	2A/	0a
2AA/	.	2A/	.
4AA/	.	2A/	.
4BB/	.	.	.
4C/	.	2A/	.
4D\	.	.	.
=107	=107	=107	=107
2E\	0r	2G/	0r
2.D\	.	2F/	.
.	.	1E	.
4C#i/	.	.	.
4C#i/	.	.	.
4BB/	.	.	.
=108	=108	=108	=108
0D	0r	4D/	2r
.	.	4E/	.
.	.	4F/	2a/
.	.	4G/	.
.	.	4A/	2a/
.	.	4F/	.
.	.	2f\	2a/
=109	=109	=109	=109
0r	0r	4e\	2g/
.	.	4d\	.
.	.	2.d\	2f/
.	.	.	1e
.	.	4c#i\	.
.	.	4c#i\	.
.	.	4B\	.
=110	=110	=110	=110
0r	0r	2d\	2d/
.	.	2B\	2d/
.	.	2c\	2e/
.	.	2d\	2f/
=111	=111	=111	=111
0r	0r	2B\	2g/
.	.	2c\	2e/
.	.	2d\	2f/
.	.	2B\	2g/
=112	=112	=112	=112
0r	0r	2c\	2e/
.	.	2d\	2f/
.	.	2e\	2g/
.	.	[2f\	[2a/
=113	=113	=113	=113
0r	0r	2f\]	2a/]
.	.	4e\	4g/
.	.	4d\	4f/
.	.	1c	1e
=114	=114	=114	=114
2r	0A	2r	2r
2A\	.	2c\	2cc\
2A\	.	2c\	2cc\
2A\	.	2c\	2cc\
=115	=115	=115	=115
2.G\	0B	2d\	2.b\
.	.	2.G/	.
4F\	.	.	4a/
2E\	.	.	2g/
.	.	4E/	.
2D\	.	2F/	2f/
=116	=116	=116	=116
2C/	0c	1G	1e
2BB/	.	.	.
1AA	.	1A	2r
.	.	.	[2a/
=117	=117	=117	=117
2r	0A	2F/	2a/]
2F\	.	2D/	2a/
2D\	.	2d\	2f/
2F\	.	2A/	2f/
=118	=118	=118	=118
2E\	0G	2B\	1.g
2.C/	.	2.e\	.
4D\	.	4d\	.
2E\	.	2B\	4f/
.	.	.	4e/
=119	=119	=119	=119
2AA/	0A	2c\	2e/
2F\	.	2A/	2a/
2D\	.	2d\	2f/
2F\	.	2A/	2f/
=120	=120	=120	=120
2E\	0G	2B\	2g/
2.C/	.	2.e\	2g/
.	.	.	[1e
4D\	.	4d\	.
2E\	.	2B\	.
=121	=121	=121	=121
1AA	0A	2.c\	2e/]
.	.	.	4d/
.	.	4d\	4c/
1A	.	2e\	1c
.	.	2A/	.
=122	=122	=122	=122
1D	0r	1d	1r
[1A	.	2r	[1f
.	.	[2c\	.
=123	=123	=123	=123
2A\]	0r	2c\]	2f/]
2A\	.	2c\	2f/
2A\	.	2c\	2f/
2A\	.	2c\	2f/
=124	=124	=124	=124
1B-i	0r	1d	1g
2A\	.	2c\	2f/
[2G\	.	[2B\	[2e/
=125	=125	=125	=125
4G\]	0r	4B\]	4e/]
4F\	.	4A/	4d/
2D\	.	1A	1d
1E	.	.	.
.	.	2G/	2c#i/
=126	=126	=126	=126
0D	0r	1A	1d
.	.	2r	[1a
.	.	[2f\	.
=127	=127	=127	=127
0r	0r	2f\]	2a/]
.	.	2f\	2a/
.	.	2f\	2a/
.	.	2f\	2a/
=128	=128	=128	=128
0r	0r	1g	1b-i
.	.	2f\	2a/
.	.	[2e\	[2g/
=129	=129	=129	=129
0r	0r	4e\]	4g/]
.	.	4d\	4f/
.	.	1d	2d/
.	.	.	1e
.	.	2c#i\	.
=130	=130	=130	=130
2r	0D	2d\	2d/
2F\	.	2d\	2a/
2D\	.	2d\	2f/
2F\	.	2d\	2a/
=131	=131	=131	=131
4E\	0E	2B\	4g/
4D\	.	.	4f/
4C/	.	2.e\	4e/
4BB/	.	.	4d/
1AA	.	.	4c/
.	.	4d\	4B/
.	.	4c\	2A/
.	.	4B\	.
=132	=132	=132	=132
2A\	0F	1A	2r
4F\	.	.	2a/
4G\	.	.	.
2A\	.	2r	2.f/
2D\	.	2A/	.
.	.	.	4g/
=133	=133	=133	=133
2r	0D	2.F/	2a/
2F\	.	.	2d/
.	.	4G/	.
2D\	.	2A/	2r
2F\	.	2D/	2d/
=134	=134	=134	=134
4E\	0C	2r	2.e/
4D\	.	.	.
4C/	.	2G/	.
4BB/	.	.	4d/
1AA	.	2.A/	4c/
.	.	.	4B/
.	.	.	2A/
.	.	4G/	.
=135	=135	=135	=135
2A\	0D	4F/	2r
.	.	4E/	.
4F\	.	2D/	1a
4G\	.	.	.
2A\	.	2r	.
2D\	.	2A/	2f/
=136	=136	=136	=136
2E\	0C	2.c\	2g/
4C/	.	.	2e/
4D\	.	4B\	.
2E\	.	2G/	1e
2AA/	.	2A/	.
=137	=137	=137	=137
2A\	0D	2F/	2r
4F\	.	2D/	2a/
4G\	.	.	.
2A\	.	2r	4f/
.	.	.	4g/
2D\	.	2d\	2a/
=138	=138	=138	=138
2r	0r	4B\	2d/
.	.	4c\	.
2G\	.	2d\	2r
4E\	.	2G/	2g/
4F\	.	.	.
2G\	.	2r	4e/
.	.	.	4f/
=139	=139	=139	=139
2C/	0r	1c	2g/
1F	.	.	2c/
.	.	2A/	1f
2D\	.	[2d\	.
=140	=140	=140	=140
2.G\	0r	2d\]	2d/
.	.	4B\	2.g/
4E\	.	4G/	.
4E\	.	2G/	.
4C/	.	.	4e/
2C/	.	2c\	4e/
.	.	.	4c/
=141	=141	=141	=141
1F	0r	2r	2c/
.	.	2c\	2r
1r	.	2A/	2f/
.	.	2B\	2d/
=142	=142	=142	=142
1r	0r	2c\	2e/
.	.	2d\	2f/
2r	.	2e\	2g/
2F\	.	2c\	2a/
=143	=143	=143	=143
2D\	0r	4d\	2f/
.	.	4f\	.
2E\	.	2e\	2g/
2F\	.	2A/	2a/
2G\	.	2B\	2d/
=144	=144	=144	=144
2A\	0r	2c\	2r
2F\	.	2.d\	2.a/
2G\	.	.	.
.	.	4B\	4g/
2A\	.	2c\	2e/
=145	=145	=145	=145
1D	0r	2d\	1f
.	.	2.A/	.
1r	.	.	1e
.	.	4G/	.
.	.	2E/	.
=146	=146	=146	=146
2r	1D	1F	2d/
2.A\	.	.	4A/
.	.	.	4B/
.	1C	1E	4c/
4G\	.	.	4d/
2E\	.	.	2e/
=147	=147	=147	=147
1F	1D	2D/	2.A/
.	.	2.A/	.
.	.	.	4B/
1E	1C	.	4c/
.	.	4G/	4d/
.	.	2E/	2e/
=148	=148	=148	=148
4D\	1D	2F/	2A/
4E\	.	.	.
4F\	.	2.D/	2.f/
4G\	.	.	.
2A\	1F	.	.
.	.	4E/	4e/
2D\	.	2F/	[2d/
=149	=149	=149	=149
2E\	1E	2G/	4d/]
.	.	.	4c#i/
2AA/	.	2A/	4c#i/
.	.	.	4B/
2BB/	1D	2r	2d/
[2D\	.	4D/	[2f/
.	.	4E/	.
=150	=150	=150	=150
4D\]	1A	4F/	2f/]
4C/	.	4G/	.
4AA/	.	2A/	2.e/
4BB/	.	.	.
4C/	1G	1E	.
4D\	.	.	4d/
2E\	.	.	2B/
=151	=151	=151	=151
4AA/	1A	2e\	4c/
4BB/	.	.	4d/
4C/	.	2.e\	4e/
4D\	.	.	4f/
4E\	1G	.	2g/
4F\	.	4d\	.
2G\	.	4B\	4d/
.	.	4c\	4e/
=152	=152	=152	=152
4D\	1A	2d\	4f/
4E\	.	.	4g/
4F\	.	2A/	2a/
4G\	.	.	.
2A\	1c	1e	2A/
2AA/	.	.	[2a/
=153	=153	=153	=153
1E	1B	2r	2a/]
.	.	2e\	2g/
2AA/	1A	2c\	2.a/
[2D\	.	2d\	.
.	.	.	4f/
=154	=154	=154	=154
4D\]	1d	2.D/	2f/
4E\	.	.	.
4F\	.	.	2.a/
4G\	.	4E/	.
2A\	1c	4F/	.
.	.	4G/	4g/
2AA/	.	2A/	2e/
=155	=155	=155	=155
4D\	1d	2.D/	2f/
4E\	.	.	.
4F\	.	.	2.a/
4G\	.	4E/	.
2A\	1c	4F/	.
.	.	4G/	4g/
2AA/	.	2A/	2e/
=156	=156	=156	=156
2.BB/	1d	2r	2d/
.	.	2.D/	2.f/
4C/	.	.	.
1D	1f	.	.
.	.	4E/	4e/
.	.	4F/	[2d/
.	.	4G/	.
=157	=157	=157	=157
2r	1e	4A/	2d/]
.	.	4B\	.
2AA/	.	2A/	2c/
2.BB/	[1dl	2r	2d/
.	.	[2D/	[2f/
4C/	.	.	.
=158	=158	=158	=158
1D	0d_	4D/]	4f/]
.	.	4E/	4e/
.	.	2F/	4d/
.	.	.	4c/
1GG	.	4G/	1B-i
.	.	4D/	.
.	.	2G/	.
=159	=159	=159	=159
0Dl	0d]	0Fl	0Al
==	==	==	==
*-	*-	*-	*-
!!!RDF**kern: l=long note in original notation
!!!RDF**kern: i=editorial accidental
!!!RDF**kern: V=start of tuplet marker
!!!RDF**kern: Z=end of tuplet marker
!!!ENC: Jesse Rodin; Victoria Chang 2011/09/10
!!!END: 2011/09/10/
!!!EED:	Jesse Rodin
!!!EEV:	2011/10/26/
!!attribution-level: 1 (secure)
!!!ONB:	Translated from MusicXML and edited on 2011/10/26/ by Craig Sapp
!!muse2ps: T^@{OPR}^u^@{ONM}{. }@{OTL}^C^@{COM}\n@{SCT}^i2I100v85,90,85,100c92Q16
